packages/core/src/svgs/tokens/mono/BOA.svg

<svg width="24" height="24" viewBox="0 0 24 24" fill="none" xmlns="http://www.w3.org/2000/svg">
<path fill-rule="evenodd" clip-rule="evenodd" d="M2 7.625H22V10.7499H20.7499L21.0624 20.75H22V21.9999H2V20.75H2.93749L3.24999 10.7499H2V7.625ZM6.99991 10.7499H10.125L9.71241 20.75H7.36866L6.99991 10.7499ZM13.8749 10.7499H16.9998L16.5874 20.75H14.2436L13.8749 10.7499Z" fill="white"/>
<path d="M4.5 6.37499L11.975 2L19.5 6.37499H4.5Z" fill="white"/>
</svg>

<svg xmlns="http://www.w3.org/2000/svg" width="24" height="24" fill="none" viewBox="0 0 24 24">
    <path fill="#fff" fill-rule="evenodd" d="M2 7.625h20v3.125h-1.25l.312 10H22V22H2v-1.25h.937l.313-10H2zm5 3.125h3.125l-.413 10H7.37zm6.875 0H17l-.413 10h-2.343z" clip-rule="evenodd"/>
    <path fill="#fff" d="M4.5 6.375 11.975 2 19.5 6.375z"/>
</svg>
